!!!COM: Beethoven
!!!OTL: 7 Variations on a Quartet by Winter
!!!Variation: Variation 2 d
**function	**harm	**kern	**kern
*	*	*clefF4	*clefG2
*	*	*k[b-]	*k[b-]
*M2/4	*M2/4	*M2/4	*M2/4
*F:	*F:	*F:	*F:
4D	F:maj	4r	(8eeL
.	.	.	q16ff
.	.	.	q16ee
.	.	.	q16dd
.	.	.	16eeL
.	.	.	16ffJJ)
=127	=127	=127	=127
4D	F:maj/5	8GL	(16ff#LL
.	.	.	16gg)
.	.	8cJ 8e	16ee'
.	.	.	16cc'JJ
4D	C:7	8GL	(16eeLL
.	.	.	16ff)
.	.	8dJ 8f	16dd'
.	.	.	16b'JJ
=128	=128	=128	=128
2D	F:maj	8eL	24ccLL
.	.	.	24dd
.	.	.	24ccJ
.	.	8cJ	24bL
.	.	.	24cc
.	.	.	24ddJJ
.	.	4r	24eeLL
.	.	.	24ff
.	.	.	24eeJ
.	.	.	24ddL
.	.	.	24ee
.	.	.	24ffJJ
=129	=129	=129	=129
4D	F:maj/5	8GGL	24ff#LL
.	.	.	24gg
.	.	.	24aaJ
.	.	8CJ 8E	24ggL
.	.	.	24ee
.	.	.	24ccJJ
4D	C:7	8GGL	24eeLL
.	.	.	24ff
.	.	.	24ggJ
.	.	8DJ 8F	24ffL
.	.	.	24dd
.	.	.	24bJJ
=130	=130	=130	=130
2D	F:maj	4C 4E	(4cc
.	.	4r	4cc#)
=131	=131	=131	=131
2D	G:maj	4r	8dd'L
.	.	.	8dd'J
*	*	*clefG2	*
.	.	8r	8.ddL
.	.	8f#	.
.	.	.	32cc#LL
.	.	.	32ddJJJ
=132	=132	=132	=132
4P	C:min	8g'L	(4.b-
.	.	8g'J	.
4P	C:maj	8.gL	.
.	.	.	8b)
.	.	32f#LL	.
.	.	32gJJJ	.
=133	=133	=133	=133
2D	F:maj/3	4.e	8cc'L
.	.	.	8cc'J
.	.	.	8.ccL
.	.	8e	.
.	.	.	32bLL
.	.	.	32ccJJJ
=134	=134	=134	=134
4T	B-:maj	8f'L	[4a
.	.	8f'J	.
16T	B-:maj	16f	16aLL]
*-	*-	*-	*-
!!!EMD: Edited in humdrumR 0.7.0.3 on 2024-01-19
